!!!OTL: HAR CHUELI HO LOBE
!!!ARE: Europa, Mitteleuropa, Schweiz, Oberhasel
!!!SCT: E1474
!!!YEM: Copyright 1995, estate of Helmut Schaffrath.
**kern
*ICvox
*Ivox
!! Mixed meters:  3/8; 2/4
*M3/8
*k[b-]
*F:
{8cc
=1
8cc
8a
8b-
=2
8b-
8g
8cc
=3
8cc
8a
8cc
=4
8b-
8g}
{8f
=5
8f
8g
8f
=6
8f
8g
8f
=7
8f
8g
8f
=8
8f
8g}
{8f
=9
4a
8a
=10
4bn
8bn
=11
4cc}
{8cc
=12
8cc
8a
8cc
=13
8b-
8g
8cc
=14
8cc
8a
8cc
=15
8b-
8g}
{8f
=16
8f
8g
8f
=17
8f
8g
8f
=18
8f
8g
8f
=19
8f
8g}
{8f
=20
4a
8a
=21
4bn
8bn
=22
4cc}
{8cc
=23
8a
8a
8b-
=24
4g
8g
=25
8a
8a
8b-
=26
8g
8g}
{8cc
=27
4a
8f
=28
*M2/4
4f}
{4cc
=29
4b-
8a
8a
=30
4g
4f
=31
4e
4d
=32
4c}
{4cc
=33
4a
4f
=34
4e
4g
=35
2f
=36
4f}
{4f
=37
4e
4g
=38
4g
4e
=39
4f
4a
=40
4a}
{4f
=41
4e
4g
=42
4g
4e
=43
4f
4a
=44
4a}
{4cc
=45
4bn
4cc
=46
4a
4g
=47
2f
=48
2f}
==
!!!AGN: Staende -, Hirten -, Alpen - Lied, Kuhreihen
!!!ONB: ESAC (Essen Associative Code) Database: ERK3
!!!AMT: irregular
!!!AIN: vox
!!!EED: Helmut Schaffrath
!!!EEV: 1.0
*-
